X:1
T:The Seasons:  Op. 37b XII. December
T:The Seasons:  Op. 37b XII. December
T:Christmas
T:Pyotr Ilyich Tchaikovsky
C:Pyotr Ilyich Tchaikovsky
%%score { ( 1 2 ) | ( 3 4 ) }
L:1/8
Q:1/4=170
M:3/4
K:Ab
V:1 treble nm="Piano" snm="Pno."
V:2 treble 
V:3 bass 
V:4 bass 
V:1
!p!"^Tempo di Valse" z2 !2!A4 | (B4 c2) | z2 d4 | (!4!c4 B2) | z2 c4 | (d4 !5!e2) | %6
"^molto rit."!<(! !4!f2[Q:1/4=158] g2[Q:1/4=153] a2!<)! |[Q:1/4=170]"^a tempo" !5!e6 | %8
!p! z2 (!5!_gfeg) | !>!f3 !3!dBF | z2 (!5!_fedf) | (!>!_e3 !3!cAE) | z2 !5!A4 | (=G4 A2) | %14
 (!4!B3 _cBc) |!p! !3!G6 |!<(! z2!mp! [=DF]2 .[DF]2 | z2!mf! .[=D_G]2 .[DG]2!<)! | %18
!f! z2!>(! [DEG]4-!>)! |!p! [DEG]6 |!p! z2 !2!A4 | (B4 c2) | z2 d4 | (!4!c4 B2) | z2 c4 | %25
 (d4 !5!e2) |"^molto rit."!<(! !4!f2[Q:1/4=158] g2[Q:1/4=153] a2 |[Q:1/4=170]"^a tempo" e6!<)! | %28
!p! z2!<(! (!5!_gfeg) | (!>!f3 !3!dBF) | z2 (!5!agfa) | (!>!g3 !3!=ecG)!<)! | z2 !3!=d4 | %33
 (!4!=e4 g2) | z2 !4!=d4 | (=e4 c2) | z2 !3!=d4 | (!4!=e4 g2) | (!4!=d3 =ede) |!p! (!2!c3 =e^de) | %40
 (!2!c3 !4!=e^de) | (!1!c!3!=e^dece) | ^d=ecede |!p!!<(! _df=efdf | =efdfef | z (!3!f=efag)!<)! | %46
!mf! (!>!!2!^d3 !1!=e !3!g!5!c') | z (!3!_e=de_gf) | (!>!!1!c3 !2!_d !3!fb) | %49
!>(! (!>!=A3 !2!B d_a) | (=gfe=d!4!fe)!>)! |!p!!<(! (_df=efdf) | =efdfef | z (!3!f=efa!<)!g) | %54
!mf! (!>!!2!^d3 =egc') | z (!3!_e=de_gf) | (!>!!1!c3 _dfb) | (!>!!1!=A3 Bcd) | (!1!^F3 G=AB) | %59
!p! z2 _A4 | (B4 c2) | z2 d4 | (!4!c4 B2) | z2 c4 | (d4 e2) | %65
"^molto rit."!<(! f2[Q:1/4=158] g2[Q:1/4=153] a2!<)! |"^a tempo"[Q:1/4=170] e6 |!p! z2 (!5!_gfeg) | %68
 (!>!f3 !3!d!2!BF) | z2 (!5!_fedf) | (!>!_e3 !3!c!2!AE) | z2 A4 | (=G4 A2) | (!4!B3 _cBc) | %74
!p!!<(! !3!G6 | z2!mp! [=DF]2 .[DF]2 | z2!mf! .[=D_G]2 .[DG]2!<)! |!f! z2!>(! [DEG]4- | %78
!p! [DEG]6!>)! |!p! z2 !2!A4 | (B4 c2) | z2 d4 | (!4!c4 B2) |!<(! z2 c4 | (d4 e2) | %85
"^molto rit." !4!f2[Q:1/4=158] g2[Q:1/4=153] a2!<)! |"^a tempo"[Q:1/4=170] e6 |!p! z2 (!5!_gfeg) | %88
 (!>!f3 !3!d!2!BF) | z2 (!5!a=gfa) | (!>!g3 !3!=e!2!cG) |!mf! z2 (!5!bagb) | (!>!a3 !2!f=B!2!A) | %93
!>(! (!>!!5!f3 !3!_d!2!_BG)!>)! |!p! (!>!!4!B3 AEC) ||[K:E] z2 !3!G4- | G4 !2!F2- | (F4 !1!E2-) | %98
 (E3 !2!D^^CD) | z2 !3!G4- | G4 x2 | z2 z2 !>!!5!e2- | (e3 !4!dBF) | z2 !3!G4- | G4 F2- | %105
 F4 !1!E2- | (E3 !2!D^^CD) | z2 !3!G4- | G4 !2!F2- | F4 !1!^^F2- | (F!5!d!3!B^A G2) | %111
!f! (!1!=A3 !2!c!4!fa) | (!>![Gg]4 !4![Ff]2) | z2 [B,FAB]4 | .[CFAc]2 .[DFAd]2 .[EGe]2 | %115
!mf! (!2!F3 ^EGF) | (d2 c2 B2) | z2 [B,EB]4 | z2 [G,EG]4 |!f! (!1!=A3 !2!c!4!fa) | %120
 (!>![Gg]4 [Ff]2) | z2 [B,FAB]4 | .[CFAc]2 .[DFAd]2 .[EGe]2 |!mf! (!2!F3 ^EGF) | (d2 c2 B2) | %125
 z2 [B,EB]4 | z2 .!4![EF^A]2 .[DFB]2 |!p! z2 !3!G4- | G4 F2- | F4 !1!E2- | (E3 !2!D^^CD) | z2 G4- | %132
 G4 x2 | z2 z2 !>!e2- | (e3 !4!d)!2!BF | z2 G4- | G4 F2- | F4 E2- | (E3 !2!D^^CD) | z2 !3!G4- | %140
 G4 F2- | F4 (^^F2- | F4 G2) | z2 z !2!^ABA | (!4!c4 B2) | z2 z (!2!^^c!4!ec) | (e4 d2) | %147
!mp! z2 z !2!^ABA | (c4 B2) | z2 z (!2!^^c!4!e!2!c) |!mf! (!4!e3 d!1!^^cd) | (!3!e3 d^^cd) | %152
!>(! _b_a=g!1!_f!3!_e_d!>)! |!>(! !4!_f_e_d_c!3!_B_A | =G_A!1!=A!3!_B!1!=B=c | %155
[Q:1/4=130] _d=c[Q:1/4=115]!4!_e[Q:1/4=100]dc[Q:1/4=10]!1!_B!>)! | %156
[K:Ab]!p![Q:1/4=155] z2[Q:1/4=160] !2!A4 |[Q:1/4=170] (B4 c2) | z2 d4 | (c4 B2) | z2 !4!c4 | %161
 (d4 e2) |"^molto rit."!<(! !4!f2[Q:1/4=158] g2[Q:1/4=153] a2 |"^a tempo"[Q:1/4=170] e6!<)! | %164
!p! z2 (!5!_gfeg) | (!>!f3 !3!d!2!BF) | z2 (!5!_fedf) | (!>!_e3 !3!c!2!AE) | z2 A4 | (=G4 A2) | %170
 (!4!B3 _cBc) |!p! !3!G6 |!<(! z2!mp! [=DF]2 .[DF]2 | z2!mf! .[=D_G]2 .[DG]2!<)! | %174
!f! z2!>(! [DEG]4-!>)! |!p! [DEG]6 |!p! z2 !2!A4 | (B4 c2) | z2 d4 | (!4!c4 B2) | z2 c4 | (d4 e2) | %182
"^molto rit."!<(! !4!f2[Q:1/4=158] g2[Q:1/4=153] a2!<)! |"^a tempo"[Q:1/4=170] !5!e6 | %184
!p! z2!<(! (!5!_gfeg) | (!>!f3 !3!d!2!BF) | z2 (!5!agfa) | (!>!g3 !3!=e!2!cG)!<)! |!p! z2 !3!=d4 | %189
 (=e4 g2) | z2 !4!=d4 | (=e4 !4!c2) | z2 !3!=d4 | (=e4 g2) | (!4!=d3 =ede) |!p! (!3!c3 !5!=e^de) | %196
!p! (!2!c3 !4!=e^de) |!p! (!1!c!3!=e ^dece) | (^d=ecede) |!p!!<(! _df=efdf | =efdfef | %201
 z (f=efag)!<)! |!mf! (!>!^d3 =e gc') | z (_e=de_gf) | (!>!c3 _d fb) |!>(! (!>!=A3 B d_a) | %206
 (=gfe=dfe)!>)! |!p! (_d!<(!f=efdf) | =efdfef | z (f=efag)!<)! |!mf! (!>!^d3 =e gc') | %211
 z (!3!_e=de_gf) | (!>!c3 !2!_d!3!fb) |!mp! (!>!=A3 Bcd) | (!1!^F3 G=AB) |!p! z2 A4 | (B4 c2) | %217
 z2 d4 | (!4!c4 B2) | z2 c4 | (d4 e2) |"^molto rit."!<(! !4!f2[Q:1/4=158] g2[Q:1/4=153] a2!<)! | %222
"^a tempo"[Q:1/4=170] !5!e6 |!p! z2 (!5!_gfeg) | (!>!f3 !3!d!2!BF) | z2 (!5!_fe df) | %226
 (!>!_e3 !3!c!2!AE) | z2 A4 | (=G4 A2) | (!4!B3 _cBc) |!p! !3!G6 |!<(! z2!mp! [=DF]2 .[DF]2 | %232
 z2!mf! .[=D_G]2 .[DG]2!<)! |!f! z2!>(! [DEG]4-!>)! |!p! [DEG]6 | z2 !2!A4 | (B4 c2) | z2 d4 | %238
 (!4!c4 B2) | z2 c4 | (d4 e2) |"^molto rit."!<(! !4!f2[Q:1/4=158] g2[Q:1/4=153] a2!<)! | %242
"^a tempo"[Q:1/4=170] !5!e6 |!p! z2 (!5!_gfeg) | (!>!f3 !3!d!2!BF) | z2 (!5!agfa) | %246
 (!>!g3 !3!=e!2!cG) |!mf! z2 (!5!bagb) | (!>!a3 f=BA) |!>(! (!>!f3 _d_BG)!>)! | %250
!p! z2[Q:1/4=174] !>!!3!F4 | (!>!G4[Q:1/4=176] A2) | !3![A,CE]2 z2 !4![A,CE]2 | %253
 z2[Q:1/4=178] !1!!3![CE]2 z2 | z2 !>!!4!A4 | (!>!!5!B4 !5!c2) |!mp! [=CE=c]2 z2 [CEc]2 | %257
 z2 [CEc]2 z2 | z2 !>!!3!f4 | (!>!!4!g4 a2) | [Ace]2 z2 [Ace]2 | z2 [ce]2 A2 | z2 !>!!3!a4 | %263
!mf! (!>!!4!b4 _c'2) | [=ce=c']2 z2 [cec']2 | z2[Q:1/4=180] [cec']2 z2 |!f! z2 !>![_fa_c'_f']4 | %267
 .!5!e'.!4!=c'.!2!a.e .!2!c2 |!mf! z2 !>![_FA_c_f]4 | .!5!e.!4!=c.!2!A.!1!E .!2!C2 | %270
 .e!>(!.c.A.E .C2 | .e.c.A.E .C2 |!mp! .e.c.A.E .C2!>)! | .e.c.A.E .C2 | z !1!C!2!E!4!A!1!c!3!e | %275
 fe!1!c!2!A!1!c!2!e |!p! .!4!a2 .!1!!2![ac']2 .[ac'e']2 | .[ac'a']2 z2 !fermata!z2 |] %278
V:2
 z2 z2 E2 | z2 [EA]2 z2 | z2 z2 [EG]2 | z2"_simile" [EG]2 z2 | z2 z2 [EA]2 | z2 [EA]2 z2 | %6
 z2 !arpeggio![A=d]2 !arpeggio![Ad]2 | z2 [EAc]2 [EAc]2 | x6 | x6 | x6 | x6 | z2 [CE]2 [CE]2 | %13
 z2 [CF]2 [CF]2 | z2 [=DA]2 [DA]2 | z2 [_DE]2 [DE]2 | x6 | x6 | x6 | x6 | z2 z2 E2 | z2 [EA]2 z2 | %22
 z2 z2 [EG]2 | z2 [EG]2 z2 | z2 z2 [EA]2 | z2 [EA]2 z2 | z2 !arpeggio![A=d]2 !arpeggio![Ad]2 | %27
 z2 [EAc]2 [EAc]2 | x6 | x6 | x6 | x6 | z2 z2 [^Fc]2 | z2 [Gc]2 z2 | z2 z2 [F=B]2 | z2 [=EG]4 | %36
 z2 z2 [^Fc]2 | z2 [Gc]2 z2 | z2 [F=B]2 [FB]2 | x6 | x6 | x6 | x6 | x6 | x6 | !1!=B6 | x6 | =A6 | %48
 x6 | x6 | x6 | x6 | x6 | =B6 | x6 | =A6 | x6 | x6 | x6 | z2 z2 E2 | z2 [EA]2 z2 | z2 z2 [EG]2 | %62
 z2 [EG]2 z2 | z2 z2 [EA]2 | z2 [EA]2 z2 | z2 !arpeggio![A=d]2 !arpeggio![Ad]2 | z2 [EAc]2 [EAc]2 | %67
 x6 | x6 | x6 | x6 | z2 [CE]2 [CE]2 | z2 [CF]2 [CF]2 | z2 [=DA]2 [DA]2 | z2 [_DE]2 [DE]2 | x6 | %76
 x6 | x6 | x6 | z2 z2 E2 | z2 [EA]2 z2 | z2 z2 [EG]2 | z2 [EG]2 z2 | z2 z2 [EA]2 | z2 [EA]2 z2 | %85
 z2 !arpeggio![A=d]2 !arpeggio![Ad]2 | z2 [EAc]2 [EAc]2 | x6 | x6 | x6 | x6 | x6 | x6 | x6 | x6 || %95
[K:E] x6 | x6 | x6 | x6 | x6 | x2 x2 !2!!1!F2- | F6- | F6 | x6 | x6 | x6 | x6 | x6 | x6 | x6 | x6 | %111
 x6 | c6 | x6 | x6 | x6 | x6 | x6 | x6 | x6 | c6 | x6 | x6 | x6 | x6 | x6 | x6 | x6 | x6 | x6 | %130
 x6 | x6 | x4 !2!!1!F2- | F6- | F6 | x6 | x6 | x6 | x6 | x6 | x6 | x6 | x6 | x6 | x6 | x6 | x6 | %147
 x6 | x6 | x6 | x6 | x6 | x6 | x6 | x6 | x6 |[K:Ab] z2 z2 E2 | z2 [EA]2 z2 | z2 z2 [EG]2 | %159
 z2 [EG]2 z2 | z2 z2 [EA]2 | z2 [EA]2 z2 | z2 !arpeggio![A=d]2 !arpeggio![Ad]2 | z2 [EAc]2 [EAc]2 | %164
 x6 | x6 | x6 | x6 | z2 [CE]2 [CE]2 | z2 [CF]2 [CF]2 | z2 [=DA]2 [DA]2 | z2 [_DE]2 [DE]2 | x6 | %173
 x6 | x6 | x6 | z2 z2 E2 | z2 [EA]2 z2 | z2 z2 [EG]2 | z2 [EG]2 z2 | z2 z2 [EA]2 | z2 [EA]2 z2 | %182
 z2 !arpeggio![A=d]2 !arpeggio![Ad]2 | z2 [EAc]2 [EAc]2 | x6 | x6 | x6 | x6 | z2 z2 [^Fc]2 | %189
 z2 [Gc]2 z2 | z2 z2 [F=B]2 | z2 [=EG]4 | z2 z2 [^Fc]2 | z2 [Gc]2 z2 | z2 [F=B]2 [FB]2 | x6 | x6 | %197
 x6 | x6 | x6 | x6 | =B6 | x6 | =A6 | x6 | x6 | x6 | x6 | x6 | =B6 | x6 | =A6 | x6 | x6 | x6 | %215
 z2 z2 E2 | z2 [EA]2 z2 | z2 z2 [EG]2 | z2 [EG]2 z2 | z2 z2 [EA]2 | z2 [EA]2 z2 | %221
 z2 !arpeggio![A=d]2 !arpeggio![Ad]2 | z2 [EAc]2 [EAc]2 | x6 | x6 | x6 | x6 | z2 [CE]2 [CE]2 | %228
 z2 [CF]2 [CF]2 | z2 [=DA]2 [DA]2 | z2 [_DE]2 [DE]2 | x6 | x6 | x6 | x6 | z2 z2 E2 | z2 [EA]2 z2 | %237
 z2 z2 [EG]2 | z2 [EG]2 z2 | z2 z2 [EA]2 | z2 [EA]2 z2 | z2 !arpeggio![A=d]2 !arpeggio![Ad]2 | %242
 z2 [EAc]2 [EAc]2 | x6 | x6 | x6 | x6 | x6 | x6 | x6 | z2 [=B,=D]2 [B,D]2 | z2 [=B,=D]2 [B,D]2 | %252
 x6 | x6 | z2 [_C_F]2 [CF]2 | z2 [_C_F]2 [CF]2 | x6 | x6 | z2 [=B=d]2 [Bd]2 | z2 [=B=d]2 [Bd]2 | %260
 x6 | x6 | z2 [_c_f]2 [cf]2 | z2 [_c_f]2 [cf]2 | x6 | x6 | x6 | x6 | x6 | x6 | x6 | x6 | x6 | x6 | %274
 x6 | x6 | x6 | x6 |] %278
V:3
!ped! A,,2!ped-up! !4![E,A,C]2 [E,A,C]2 |!ped! E,,2!ped-up! [E,A,C]2 [E,A,C]2 | %2
!ped! B,,2!ped-up! [E,G,D]2 [E,G,D]2 |!ped! E,,2!ped-up! [E,G,D]2 [E,G,D]2 | %4
 A,,2 !4![E,A,C]2 [E,A,C]2 | E,,2 !3![_G,A,C]2 [G,A,C]2 | %6
 A,,2 !arpeggio!!3![F,A,=B,]2 !arpeggio![F,A,B,]2 | A,,2 !4![E,A,C]2 [E,A,C]2 | %8
 =A,,2 !5![F,CE]2 [F,CE]2 | B,,2 !4![F,B,D]2 [F,B,D]2 | G,,2 !5![E,B,D]2 [E,B,D]2 | %11
 A,,2 !4![E,A,C]2 [E,A,C]2 | _G,,2 !2!!1![_G,A,]2 [G,A,]2 | F,,2 !2!!1![F,A,]2 [F,A,]2 | %14
 _F,,2 [_F,A,]2 [F,A,]2 | E,,2 !2!!1![E,B,]2 [E,B,]2 | E,,2 [E,B,]2 [E,B,]2 | %17
 E,,2 [E,B,]2 [E,B,]2 | E,,2 [E,B,]4- | [E,B,]4- [E,B,]E,, | A,,2 !4![E,A,C]2 [E,A,C]2 | %21
 E,,2 [E,A,C]2 [E,A,C]2 | B,,2 !4![E,G,D]2 [E,G,D]2 | E,,2 [E,G,D]2 [E,G,D]2 | %24
"^poco cresc." A,,2 [E,A,C]2 [E,A,C]2 | E,,2 !3![_G,A,C]2 [G,A,C]2 | %26
 A,,2 !arpeggio![F,A,=B,]2 !arpeggio![F,A,B,]2 | A,,2 [E,A,C]2 [E,A,C]2 | %28
 =A,,2 !5![F,CE]2 [F,CE]2 | B,,2 !4![F,B,D]2 [F,B,D]2 | =B,,2 !5![G,=DF]2 [G,DF]2 | %31
 C,2 !4![G,C=E]2 [G,CE]2 | C,2 !3![A,C=D]2 [A,CD]2 | C,2 [G,C=E]2 [G,CE]2 | %34
 C,2 !3![F,A,=D]2 [F,A,D]2 | C,2 [G,C]2 [G,C]2 | C,2 [A,C=D]2 [A,CD]2 | C,2 [G,C=E]2 [G,CE]2 | %38
 C,2 [F,A,=D]2 [F,A,D]2 |!ped! C,2 [G,C=E]2!ped-up! z2 |!ped! C,2 [G,C=E]2!ped-up! z2 | %41
!ped! C,2 [G,C=E]2!ped-up! z2 | z6 | B,2 [DF]2 [DF]2 | A,2 [B,DF]2 [B,DF]2 | %45
 G,2 [=B,=DF]2 [B,DF]2 |!ped! C,2 [G,CG]2!ped-up! [G,CG]2 | F,2 [=A,CF]2 [A,CF]2 | %48
!ped! B,,2 [B,DF]2 [B,DF]2!ped-up! |!ped! D,2 [B,DF]2 [B,DF]2!ped-up! | E,2 !3![B,DE]2 [B,DE]2 | %51
 !4!B,2 [DF]2 [DF]2 | A,2 [B,DF]2 [B,DF]2 | G,2 [=B,=DF]2 [B,DF]2 | %54
!ped! C,2 [G,CG]2!ped-up! [G,CG]2 | F,2 [=A,CF]2 [A,CF]2 |!ped! B,,2 !3![B,DF]2!ped-up! [B,DF]2 | %57
"^dim." D,2 [B,DF]2 [B,DF]2 | E,2 [B,DE]2 [B,DE]2 |!ped! A,,2!ped-up! !4![E,A,C]2 [E,A,C]2 | %60
!ped! E,,2!ped-up! [E,A,C]2 [E,A,C]2 |!ped! B,,2!ped-up! !4![E,G,D]2 [E,G,D]2 | %62
!ped! E,,2!ped-up!"_simile" [E,G,D]2 [E,G,D]2 |"^poco cresc." A,,2 [E,A,C]2 [E,A,C]2 | %64
 E,,2 !3![_G,A,C]2 [G,A,C]2 | A,,2 !arpeggio!!3![F,A,=B,]2 !arpeggio![F,A,B,]2 | %66
 A,,2 !4![E,A,C]2 [E,A,C]2 | =A,,2 !5![F,CE]2 [F,CE]2 | B,,2 !4![F,B,D]2 [F,B,D]2 | %69
 G,,2 !5![E,B,D]2 [E,B,D]2 | A,,2 !4![E,A,C]2 [E,A,C]2 | _G,,2 [_G,A,]2 [G,A,]2 | %72
 F,,2 [F,A,]2 [F,A,]2 | _F,,2 [_F,A,]2 [F,A,]2 | E,,2 !2!!1![E,B,]2 [E,B,]2 | %75
 E,,2 [E,B,]2 [E,B,]2 | E,,2 [E,B,]2 [E,B,]2 | E,,2 [E,B,]4- | [E,B,]4- [E,B,]E,, | %79
 A,,2 !4![E,A,C]2 [E,A,C]2 | E,,2 [E,A,C]2 [E,A,C]2 | B,,2 [E,G,D]2 [E,G,D]2 | %82
 E,,2 [E,G,D]2 [E,G,D]2 | A,,2 [E,A,C]2 [E,A,C]2 | E,,2 [_G,A,C]2 [G,A,C]2 | %85
 A,,2 !arpeggio![F,A,=B,]2 !arpeggio![F,A,B,]2 | A,,2 !4![E,A,C]2 [E,A,C]2 | %87
 =A,,2 !5![F,CE]2 [F,CE]2 |"^cresc." B,,2 !4![F,B,D]2 [F,B,D]2 | =B,,2 [G,DF]2 [G,DF]2 | %90
 C,2 !4![G,C=E]2 [G,CE]2 | D,2 !3![B,DF]2 [B,DF]2 | =D,2 !3![A,=B,F]2 [A,B,F]2 | %93
 E,2 !4![G,_DE]2 [G,DE]2 | A,,2 [E,A,C]2 [E,A,C]2 ||[K:E]!p!!ped! (!>!!1!B,3 ^A,!ped-up!C!2!A,) | %96
 !>!B,6 | !>!B,6 | !>!B,6 |!ped! (!>!!1!B,3 ^A,!ped-up!C!2!A,) | !>!B,6 | !>!B,6 | B,6 | %103
!ped! (!>!!1!B,3 ^A,!ped-up!C!2!A,) | !>!B,6 | !>!B,6 | !>!B,6 | %107
!ped! (!>!!1!B,3 ^A,!ped-up!C!2!A,) | !>!B,6 | !>!!1!^A,6 | G,,2 [D,G,B,]2 z2 | %111
!ped! F,2!ped-up! !4![A,CF]4 |!ped! E,2 !2!!1![A,C]4!ped-up! | (!>!!2!D,3 C,E,D,) | %114
 .!3!C,2 .=C,2 .B,,2 |!ped! ^A,,2!ped-up! !3![E,F,^C]4 |!ped! =A,,2 !3![D,F,B,]4!ped-up! | %117
 (!>!!3!G,,3 ^^F,,!2!A,,G,,) | (!1!C,2 B,,2 E,,2) |!ped! !5!F,2!ped-up! [A,CF]4 | %120
!ped! E,2 !2!!1![A,C]4!ped-up! | (!>!!2!D,3 C,E,D,) | .!3!C,2 .=C,2 .B,,2 | %123
!ped! ^A,,2!ped-up! !3![E,F,^C]4 |!ped! =A,,2 !3![D,F,B,]4!ped-up! | (!>!!3!G,,3 ^^F,,!2!A,,G,,) | %126
 .!1!D,2 .!2!C,2 .!3!B,,2 |!ped! !>!B,3 ^A,!ped-up!CA, | !>!!1!B,6 | !>!B,6 | !>!B,6 | %131
!ped! !>!B,3 ^A,!ped-up!CA, | !>!!1!B,6 | !>!B,6 | !>!B,6 |!ped! (!>!B,3 ^A,!ped-up!CA,) | %136
 !>!!1!B,6 | !>!B,6 | !>!B,6 |"^poco cresc." (!>!!1!B,3 ^A,CA,) | !1!B,6 | !2!!1![A,C]6 | %142
 !2!!5![B,D]6 | [^^F,CD]6 | [G,B,D]6 |!ped! [B,DG]6!ped-up! |!ped! [^A,C^^F]6!ped-up! | [^^F,CD]6 | %148
 [G,B,D]6 |!ped! !3![B,DG]6!ped-up! |!ped! [^A,C^^F]6 | [^A,C^^F]6 | z6 | z6!ped-up! | z6 | z6 | %156
[K:Ab]!ped! A,,2!ped-up! !4![E,A,C]2 [E,A,C]2 |!ped! E,,2!ped-up! [E,A,C]2 [E,A,C]2 | %158
!ped! B,,2!ped-up! !4![E,G,D]2 [E,G,D]2 |!ped! E,,2!ped-up!"_simile" [E,G,D]2 [E,G,D]2 | %160
"^poco cresc." A,,2 !4![E,A,C]2 [E,A,C]2 | E,,2 !3![_G,A,C]2 [G,A,C]2 | %162
 A,,2 !arpeggio![F,A,=B,]2 !arpeggio![F,A,B,]2 | A,,2 !4![E,A,C]2 [E,A,C]2 | %164
 =A,,2 [F,CE]2 [F,CE]2 | B,,2 !4![F,B,D]2 [F,B,D]2 | G,,2 [E,B,D]2 [E,B,D]2 | %167
 A,,2 [E,A,C]2 [E,A,C]2 | _G,,2 [_G,A,]2 [G,A,]2 | F,,2 [F,A,]2 [F,A,]2 | _F,,2 [_F,A,]2 [F,A,]2 | %171
 E,,2 !2!!1![E,B,]2 [E,B,]2 | E,,2 [E,B,]2 [E,B,]2 | E,,2 [E,B,]2 [E,B,]2 | E,,2 [E,B,]4- | %175
 [E,B,]4- [E,B,]E,, | A,,2 !4![E,A,C]2 [E,A,C]2 | E,,2 [E,A,C]2 [E,A,C]2 | %178
 B,,2 !4![E,G,D]2 [E,G,D]2 | E,,2 [E,G,D]2 [E,G,D]2 |"^poco cresc." A,,2 !4![E,A,C]2 [E,A,C]2 | %181
 E,,2 !3![_G,A,C]2 [G,A,C]2 | A,,2 !arpeggio!!3![F,A,=B,]2 !arpeggio![F,A,B,]2 | %183
 A,,2 !4![E,A,C]2 [E,A,C]2 | =A,,2 [F,CE]2 [F,CE]2 | B,,2 [F,B,D]2 [F,B,D]2 | %186
 =B,,2 [G,=DF]2 [G,DF]2 | C,2 !4![G,C=E]2 [G,CE]2 | C,2 [A,C=D]2 [A,CD]2 | %189
 C,2 !4![G,C=E]2 [G,CE]2 | C,2 !3![F,A,=D]2 [F,A,D]2 | C,2 [G,C]2 [G,C]2 | %192
 C,2 !3![A,C=D]2 [A,CD]2 | C,2 !4![G,C=E]2 [G,CE]2 | C,2 !3![F,A,=D]2 [F,A,D]2 | %195
!ped! C,2 !4![G,C=E]2!ped-up! z2 |!ped! C,2 [G,C=E]2!ped-up! z2 |!ped! C,2 [G,C=E]2!ped-up! z2 | %198
 z6 | B,2 [DF]2 [DF]2 | A,2 [B,DF]2 [B,DF]2 | G,2 [=B,=DF]2 [B,DF]2 | %202
!ped! C,2 [G,CG]2 [G,CG]2!ped-up! | F,2 [=A,CF]2 [A,CF]2 |!ped! B,,2 [B,DF]2 [B,DF]2!ped-up! | %205
!ped! D,2 [B,DF]2 [B,DF]2!ped-up! | E,2 [B,DE]2 [B,DE]2 | B,2 [DF]2 [DF]2 | A,2 [B,DF]2 [B,DF]2 | %209
 G,2 [=B,=DF]2 [B,DF]2 |!ped! C,2 [G,CG]2!ped-up! [G,CG]2 | F,2 [=A,CF]2 [A,CF]2 | %212
"^dim."!ped! B,,2 !3![B,DF]2!ped-up! [B,DF]2 | D,2 [B,DF]2 [B,DF]2 | E,2 [B,DE]2 [B,DE]2 | %215
!ped! A,,2!ped-up! !4![E,A,C]2 [E,A,C]2 |!ped! E,,2!ped-up! [E,A,C]2 [E,A,C]2 | %217
!ped! B,,2!ped-up! !4![E,G,D]2 [E,G,D]2 |!ped! E,,2!ped-up!"_simile" [E,G,D]2 [E,G,D]2 | %219
"^poco cresc." A,,2 [E,A,C]2 [E,A,C]2 | E,,2 [_G,A,C]2 [G,A,C]2 | %221
 A,,2 !arpeggio!!3![F,A,=B,]2 !arpeggio![F,A,B,]2 | A,,2 !4![E,A,C]2 [E,A,C]2 | %223
 =A,,2 [F,CE]2 [F,CE]2 | B,,2 [F,B,D]2 [F,B,D]2 | G,,2 [E,B,D]2 [E,B,D]2 | A,,2 [E,A,C]2 [E,A,C]2 | %227
 _G,,2 [_G,A,]2 [G,A,]2 | F,,2 [F,A,]2 [F,A,]2 | _F,,2 [_F,A,]2 [F,A,]2 | %230
 E,,2 !2!!1![E,B,]2 [E,B,]2 | E,,2 [E,B,]2 [E,B,]2 | E,,2 [E,B,]2 [E,B,]2 | E,,2 [E,B,]4- | %234
 [E,B,]4- [E,B,]E,, | A,,2 !4![E,A,C]2 [E,A,C]2 | E,,2 [E,A,C]2 [E,A,C]2 | %237
 B,,2 !4![E,G,D]2 [E,G,D]2 | E,,2 [E,G,D]2 [E,G,D]2 |"^poco cresc." A,,2 !4![E,A,C]2 [E,A,C]2 | %240
 E,,2 !3![_G,A,C]2 [G,A,C]2 | A,,2 !arpeggio!!3![F,A,=B,]2 !arpeggio![F,A,B,]2 | %242
 A,,2 !4![E,A,C]2 [E,A,C]2 | =A,,2 [F,CE]2 [F,CE]2 | B,,2 [F,B,D]2 [F,B,D]2 | %245
 =B,,2 [G,=DF]2 [G,DF]2 | C,2 !4![G,C=E]2 [G,CE]2 | D,2 !3![B,DF]2 [B,DF]2 | %248
 =D,2 [A,=B,F]2 [A,B,F]2 | E,2 !4![G,_DE]2 [G,DE]2 | z2 !3![=D,F,A,]2 [D,F,A,]2 | %251
"^poco  a  poco cresc." z2 !3![=D,F,A,]2 [D,F,A,]2 | [E,,E,]2 !>![F,,F,]4 | %253
 (!>![G,,G,]4 [A,,A,]2) | z2 !2!!1![_F,A,]2 [F,A,]2 | z2 [_F,A,]2 [F,A,]2 | %256
 [E,,E,]2 !>![=F,,=F,]4 | (!>![G,,G,]4 [A,,A,]2) |[K:treble] z2 [=DFA]2 [DFA]2 | %259
 z2 [=DFA]2 [DFA]2 |[K:bass] [E,E]2 !>![F,F]4 | [G,G]4 A,2 |[K:treble] z2 !2!!1![_FA]2 [FA]2 | %263
 z2 [_FA]2 [FA]2 | [E,E]2 !>![=F,=F]4 | (!>![G,G]4 [A,A]2) |!ped! A,2!ped-up! !>!!5![=D_FA_c]4 | %267
!ped! !4![EA=c]2!ped-up! z2 z2 |[K:bass]!ped! A,,2!ped-up! !>![=D,_F,A,_C]4 | %269
!ped! !4![E,A,=C]2!ped-up! z2 z2 | A,,2 [E,A,C]2 z2 | A,,2 [E,A,C]2 z2 | A,,2 [E,A,C]2 z2 | %273
 A,,2 [E,A,C]2 z2 | A,,2 [E,A,C]4- | [E,A,C]2 [A,CE]2 [A,CE]2 |[K:treble] [A,CE]2 .[Ace]2 .[Ace]2 | %277
 .[Ace]2 z2 !fermata!z2 |] %278
V:4
 x6 | x6 | x6 | x6 | x6 | x6 | x6 | x6 | x6 | x6 | x6 | x6 | x6 | x6 | x6 | x6 | x6 | x6 | x6 | %19
 x6 | x6 | x6 | x6 | x6 | x6 | x6 | x6 | x6 | x6 | x6 | x6 | x6 | x6 | x6 | x6 | x6 | x6 | x6 | %38
 x6 | x6 | x6 | x6 | x6 | x6 | x6 | x6 | x6 | x6 | x6 | x6 | x6 | x6 | x6 | x6 | x6 | x6 | x6 | %57
 x6 | x6 | x6 | x6 | x6 | x6 | x6 | x6 | x6 | x6 | x6 | x6 | x6 | x6 | x6 | x6 | x6 | x6 | x6 | %76
 x6 | x6 | x6 | x6 | x6 | x6 | x6 | x6 | x6 | x6 | x6 | x6 | x6 | x6 | x6 | x6 | x6 | x6 | x6 || %95
[K:E] z2 !4!E,4- | E,2 !3!D,4- | D,2 !4!C,4- | C,2 B,,4 | z2 E,4- | E,2 !3!D,4- | D,2 !4!C,4- | %102
 C,2 B,,4 | z2 E,4- | E,2 !3!D,4- | D,2 !4!C,4- | C,2 B,,4 | z2 E,4- | E,2 !3!D,4- | D,2 D,4 | x6 | %111
 x6 | x6 | x6 | x6 | x6 | x6 | x6 | x6 | x6 | x6 | x6 | x6 | x6 | x6 | x6 | x6 | z2 !5!E,4- | %128
 E,2 !3!D,4- | D,2 !4!C,4- | C,2 B,,4 | z2 !5!E,4- | (E,2 !3!D,4-) | D,2 !4!C,4- | C,2 !5!B,,4 | %135
 z2 E,4- | E,2 !3!D,4- | D,2 C,4- | C,2 B,,4 | z2 E,4- | E,2 !4!D,4- | D,2 !5!D,4- | D,2 D,4- | %143
 D,2 D,4- | D,2 D,4 | z2 D,4 | z2 D,4 | D,2 D,4- | D,2 D,4 | z2 D,4 | z2 D,4 | z2 D,4 | x6 | x6 | %154
 x6 | x6 |[K:Ab] x6 | x6 | x6 | x6 | x6 | x6 | x6 | x6 | x6 | x6 | x6 | x6 | x6 | x6 | x6 | x6 | %172
 x6 | x6 | x6 | x6 | x6 | x6 | x6 | x6 | x6 | x6 | x6 | x6 | x6 | x6 | x6 | x6 | x6 | x6 | x6 | %191
 x6 | x6 | x6 | x6 | x6 | x6 | x6 | x6 | x6 | x6 | x6 | x6 | x6 | x6 | x6 | x6 | x6 | x6 | x6 | %210
 x6 | x6 | x6 | x6 | x6 | x6 | x6 | x6 | x6 | x6 | x6 | x6 | x6 | x6 | x6 | x6 | x6 | x6 | x6 | %229
 x6 | x6 | x6 | x6 | x6 | x6 | x6 | x6 | x6 | x6 | x6 | x6 | x6 | x6 | x6 | x6 | x6 | x6 | x6 | %248
 x6 | x6 | A,,6 | A,,6 | x6 | x6 | !3!=D,6 | =D,6 | x6 | x6 |[K:treble] !5!A,6 | !5!A,6 | %260
[K:bass] x6 | x6 |[K:treble] !3!=D6 | =D6 | x6 | x6 | x6 | x6 |[K:bass] x6 | x6 | x6 | x6 | x6 | %273
 x6 | x6 | x6 |[K:treble] x6 | x6 |] %278

